X: 27919
T: Mountain Road, The
R: reel
M: 4/4
K: Dmajor
DE|:FFAF BFAF|FFAF EFDE|1 FFAF BFAF|FEED EDBD:|2 FAAA BAFB|ABdE FD2A||
|:dcdB ADFA|dcdE FGFE|DEFD AFDF|1 FEED EDBc:|2 FEED EDBD||

